X:1
T:How Can I Look on Calvary’s Cross?
T:Victor H. Benke
T:How Can I Look on Calvary’s Cross?
T:Musi
T:Musi
T:Musi
C:Victor H. Benke
Z:Musi
%%score ( 1 2 ) ( 3 4 )
L:1/8
M:3/4
K:Bb
V:1 treble 
V:2 treble 
V:3 bass 
V:4 bass 
V:1
 [DF][^C=E] [DF] | [DB]3 [Ec] [Fd][DB] | [DF]4 [DB]2 | [EA]3 [CE] [FA][EG] | [DF]3 [DB] [DB][Gc] | %5
w: 1.~How can I|look on Cal- v’ry’s|cross And|see my Sav- ior|there, With out- stretched|
w: 2.~How can I|think of all He|bore— The|shame, the thorns, the|pain, And un- re-|
w: 3.~No, no! I|can- not trai- tor|be To|Je- sus, King of|Love, Tho’ sin- ner|
 [^Fd]3 [FA] [DB][CA] | [B,G]4 [DB]2 | [FA]3 [=Ec] [DB][B,G] | [A,F]3 [DB] [DB][Gc] | %9
w: arms the world to|save, My|sins Him- self to|bear? How con- tem-|
w: pent- ant go my|way To|pierce His heart a-|gain? For- sak- en|
w: steeped in guilt I|am, His|mer- cy I will|prove; His blood on|
 [^Fd]3 [FA] [DB][CA] | [B,G]4 [DB]2 | [FA]3 [=Ec] [DB][B,G] | [A,F]3 [DF] [^C=E][DF] | %13
w: plate and yet with-|stand Such|love as He has|shown Who died to|
w: in His dark- est|hour By|all, ex- cept His|God, Shall I de-|
w: Cal- v’ry’s cross was|shed, To|save e’en such as|me; O Je- sus,|
 [DB]3 [Fd] [Af][Ge] | [Fd]4 [DF]2 | [Fd]3 [DB] [EA][Ec] | [DB]3 ||"^Refrain" [DB][Ge] [Fd] | %18
w: draw the sin- ner|near And|claim him for His|own?|O love of|
w: ny my bless- èd|Lord, Who|died to lift the|rod?||
w: now ac- cept my|all, And|draw me close to|Thee.||
 [=EG]3 [EG] [Fd][_Ec] | [DF]4 [Fd]2 | [Fc]3 [=EB] [EA][EG] | (F=E _E) | [DF][DB] [Ec] | %23
w: God, that bro’t me|there, O|love so deep, so|true, * *|fill my long-|
w: |||||
w: |||||
 [Fd]3 [DB] [Ge][EG] | [DF]4 [FB]2 | [=Ec]3 [EG] [_EB][EA] | (DE D) |] %27
w: ing heart with light|And rap-|ture, thro’ and thro’.||
w: ||||
w: ||||
V:2
 x3 | x6 | x6 | x6 | x6 | x6 | x6 | x6 | x6 | x6 | x6 | x6 | x6 | x6 | x6 | x6 | x3 || x3 | x6 | %19
w: |||||||||||||||||||
 x6 | x6 | F3 | x3 | x6 | x6 | x6 | B3 |] %27
w: ||Come||||||
V:3
 z3 | (z F, B,) z3 | (z F, B,2) z2 | (z C, F,) z3 | (z F, B,) z3 | (z A, D) z3 | (z D, G,2) z2 | %7
w: |||||||
 (z F, C) z3 | (z C, F,) z3 | (z A, D) z3 | (z D, C) z3 | (z F, C) z3 | (z C, F,) z3 | %13
w: ||||||
 (z F, B,) z3 | (z F, B,2) z2 | ([B,D][B,D] [B,D]) z CA, | (z F, B,,) || z2 [B,,B,] | %18
w: ||~ * * ~ *||of|
 [C,B,][C,B,] [C,B,] z2 [F,,A,] | [B,,B,][B,,B,] [B,,B,]2 [B,,G,]2 | [C,A,]3 [C,D] [C,C][C,B,] | %21
w: God, that bro’t me|there, ~ ~ ~|~ ~ ~ so|
 A,B, C | z2 [F,A,] | [B,,B,][B,,B,] [B,,B,] z2 [E,B,] | [B,,B,][B,,B,] [B,,B,]2 [D,B,]2 | %25
w: true, Come fill|heart|with heav’n- ly light|~ ~ ~ ~|
 [C,B,]3 [C,B,] [F,C][F,C] | B,G, F, |] %27
w: ~ ~ and thro’||
V:4
 x3 | B,,3 x3 | B,,4 x2 | F,,3 x3 | B,,3 x3 | D,3 x3 | G,,4 x2 | C,3 x3 | F,,3 x3 | D,3 x3 | %10
w: |~|~|~|~|~|~|~|~|~|
 G,,4 x2 | C,3 x3 | F,,3 x3 | B,,3 x3 | B,,4 x2 | F,3 F,2 x | B,3 || x3 | x6 | x6 | x6 | F,3 | x3 | %23
w: ~|~|~|~|~|* O|love|||||my||
 x6 | x6 | x6 | B,,3 |] %27
w: ||||

